X:17
T:Polska ur Petter Dufvas notbok (Ma6-17)
R:Polska
O:Verkelbäck, Småland
B:Petter Dufvas notbok
S:Petter Dufva
N:Smus Ma6 bild 19
N:I första reprisens 5 takt är ett A ändrad till B (h) i enlighet med 6 takten, i enlighet med kommentar till låten i M Gustafsson, Polskans Historia.
M:3/4
L:1/8
K:G
gd ag/f/ g2|gf/e/ d/c/B/A/ BG|GD AG/F/ G2|GF/E/ D/C/B,/A,/ B,G,|
GF/G/ A/G/F/G/ BG|GF/G/ A/G/F/G/ BG|B,d A,c G,B|AG/F/ G2 G,2:|
|:gb bg ge|fa af fd|eg gf/e/ fd|ed/^c/ d2D2|
Bd dB BG|A/B/c/d/ e2 e2|Ac cA AD|G/A/B/c/ d2 d2|
GF/G/ A/G/F/G/ BG|GF/G/ A/G/F/G/ BG|B,d A,c G,B|AG/F/ G2 G,2:|

